assets/images/google.svg

<?xml version="1.0" encoding="UTF-8" standalone="no"?>
<!DOCTYPE svg PUBLIC "-//W3C//DTD SVG 1.1//EN" "http://www.w3.org/Graphics/SVG/1.1/DTD/svg11.dtd">
<svg width="100%" height="100%" viewBox="0 0 90 88" version="1.1" xmlns="http://www.w3.org/2000/svg" xmlns:xlink="http://www.w3.org/1999/xlink" xml:space="preserve" xmlns:serif="http://www.serif.com/" style="fill-rule:evenodd;clip-rule:evenodd;stroke-linejoin:round;stroke-miterlimit:2;">
    <path id="All_glyphs" d="M4.75,21.94C4.75,29.41 7.25,34.8 12.17,37.94C15.527,39.95 19.377,40.989 23.29,40.94L24.69,40.94C24.385,44.524 25.438,48.095 27.64,50.94L27.47,50.94C21,50.89 0,52.23 0,69.52C0,87.1 19.31,88 23.18,88L24.45,88C29.583,88.012 34.658,86.917 39.33,84.79C47.07,81 51,74.49 51,65.36C51,56.54 45,51.29 40.65,47.45C37.98,45.11 35.65,43.09 35.65,41.12C35.65,39.15 37.33,37.62 39.46,35.71C42.91,32.63 46.15,28.25 46.15,19.96C46.15,12.67 45.21,7.78 39.39,4.68C40.646,4.333 41.932,4.106 43.23,4C46.38,3.56 51,3.07 51,0.5L51,0L28,0C27.78,0 4.75,0.86 4.75,21.94ZM41.87,67C42.31,74 36.29,79.22 27.26,79.88C18.23,80.54 10.54,76.43 10.1,69.4C9.975,65.821 11.516,62.379 14.27,60.09C17.449,57.322 21.461,55.689 25.67,55.45C26.19,55.45 26.67,55.39 27.21,55.39C35.71,55.39 41.46,60.38 41.87,67ZM35.87,17.12C38.12,25.05 34.72,33.35 29.29,34.88C28.664,35.052 28.019,35.139 27.37,35.14C22.37,35.14 17.47,30.14 15.64,23.14C14.615,19.682 14.699,15.988 15.88,12.58C17,9.41 19.09,7.23 21.69,6.5C22.316,6.328 22.961,6.241 23.61,6.24C29.62,6.24 33.48,8.72 35.87,17.13L35.87,17.12ZM74.61,34.41L74.61,19.41L65.11,19.41L65.11,34.41L50.11,34.41L50.11,43.91L65.11,43.91L65.11,58.91L74.61,58.91L74.61,43.91L89.61,43.91L89.61,34.41L74.61,34.41Z" style="fill:rgb(102,109,137);fill-rule:nonzero;"/>
</svg>

<svg xmlns="http://www.w3.org/2000/svg" viewBox="0 0 89.61 88"><title>Ресурс 1</title><g id="Слой_2" data-name="Слой 2"><g id="All_glyphs" data-name="All glyphs"><path d="M4.75,21.94c0,7.47,2.5,12.86,7.42,16a21.13,21.13,0,0,0,11.12,3c.59,0,1.07,0,1.4,0a14.35,14.35,0,0,0,2.95,10h-.17C21,50.89,0,52.23,0,69.52,0,87.1,19.31,88,23.18,88h1.27a35.72,35.72,0,0,0,14.88-3.21C47.07,81,51,74.49,51,65.36c0-8.82-6-14.07-10.35-17.91-2.67-2.34-5-4.36-5-6.33s1.68-3.5,3.81-5.41c3.45-3.08,6.69-7.46,6.69-15.75,0-7.29-.94-12.18-6.76-15.28A20.78,20.78,0,0,1,43.23,4C46.38,3.56,51,3.07,51,.5V0H28C27.78,0,4.75.86,4.75,21.94ZM41.87,67c.44,7-5.58,12.22-14.61,12.88S10.54,76.43,10.1,69.4a11.58,11.58,0,0,1,4.17-9.31,19,19,0,0,1,11.4-4.64c.52,0,1-.06,1.54-.06C35.71,55.39,41.46,60.38,41.87,67Zm-6-49.88c2.25,7.93-1.15,16.23-6.58,17.76a7.29,7.29,0,0,1-1.92.26c-5,0-9.9-5-11.73-12a17.26,17.26,0,0,1,.24-10.56C17,9.41,19.09,7.23,21.69,6.5a7.29,7.29,0,0,1,1.92-.26C29.62,6.24,33.48,8.72,35.87,17.13ZM74.61,34.41v-15h-9.5v15h-15v9.5h15v15h9.5v-15h15v-9.5Z"/></g></g></svg>
